svg/color/cifi.svg

<?xml version="1.0" encoding="UTF-8" ?>
<!DOCTYPE svg PUBLIC "-//W3C//DTD SVG 1.1//EN" "http://www.w3.org/Graphics/SVG/1.1/DTD/svg11.dtd">
<svg width="250pt" height="250pt" viewBox="0 0 250 250" version="1.1" xmlns="http://www.w3.org/2000/svg">
<g id="#000000ff">
<path fill="#000000" opacity="1.00" d=" M 0.00 0.00 L 250.00 0.00 L 250.00 250.00 L 0.00 250.00 L 0.00 0.00 M 118.48 44.38 C 93.96 68.90 69.46 93.45 44.90 117.94 C 43.89 118.98 42.93 120.07 41.99 121.18 C 50.28 121.31 58.57 121.26 66.86 121.23 C 68.00 121.33 68.74 120.24 69.54 119.61 C 86.20 102.89 102.90 86.20 119.61 69.54 C 120.24 68.73 121.32 68.00 121.23 66.86 C 121.26 58.57 121.31 50.27 121.17 41.98 C 120.26 42.77 119.35 43.56 118.48 44.38 M 128.83 41.99 C 128.70 50.27 128.74 58.56 128.78 66.85 C 128.70 67.99 129.80 68.69 130.42 69.49 C 137.95 76.98 145.47 84.48 152.95 92.02 C 145.67 99.70 137.98 106.99 130.59 114.56 C 129.41 115.71 128.55 117.24 128.75 118.94 C 128.78 126.68 128.68 134.42 128.83 142.16 C 130.63 140.87 132.35 139.47 133.88 137.88 C 144.50 126.96 155.55 116.45 166.14 105.51 C 171.59 110.15 176.25 115.62 181.51 120.46 C 181.87 120.64 182.60 121.01 182.96 121.19 C 190.63 121.32 198.31 121.25 205.98 121.22 C 206.44 121.04 207.37 120.67 207.83 120.48 C 182.02 95.16 156.67 69.35 131.00 43.89 C 130.29 43.24 129.56 42.61 128.83 41.99 M 42.01 128.83 C 44.16 131.38 46.56 133.71 48.96 136.04 C 72.10 159.22 95.28 182.35 118.42 205.53 C 119.26 206.22 120.17 206.82 121.15 207.32 C 121.34 199.52 121.23 191.71 121.25 183.91 C 121.38 182.52 120.48 181.33 119.55 180.41 C 102.67 163.62 85.88 146.74 69.03 129.93 C 67.82 128.37 65.79 128.77 64.08 128.73 C 56.72 128.82 49.36 128.65 42.01 128.83 M 177.45 133.45 C 162.63 148.29 147.80 163.11 132.96 177.94 C 131.56 179.40 129.90 180.68 128.85 182.45 C 128.65 190.96 128.74 199.50 128.84 208.02 C 131.23 206.03 133.43 203.83 135.58 201.58 C 158.93 178.23 182.28 154.88 205.63 131.54 C 206.45 130.66 207.24 129.74 208.01 128.83 C 199.49 128.74 190.96 128.64 182.45 128.84 C 180.50 130.04 179.09 131.89 177.45 133.45 Z" />
</g>
<g id="#fefefeff">
<path fill="#fefefe" opacity="1.00" d=" M 118.48 44.38 C 119.35 43.56 120.26 42.77 121.17 41.98 C 121.31 50.27 121.26 58.57 121.23 66.86 C 121.32 68.00 120.24 68.73 119.61 69.54 C 102.90 86.20 86.20 102.89 69.54 119.61 C 68.74 120.24 68.00 121.33 66.86 121.23 C 58.57 121.26 50.28 121.31 41.99 121.18 C 42.93 120.07 43.89 118.98 44.90 117.94 C 69.46 93.45 93.96 68.90 118.48 44.38 Z" />
<path fill="#fefefe" opacity="1.00" d=" M 128.83 41.99 C 129.56 42.61 130.29 43.24 131.00 43.89 C 156.67 69.35 182.02 95.16 207.83 120.48 C 207.37 120.67 206.44 121.04 205.98 121.22 C 198.31 121.25 190.63 121.32 182.96 121.19 C 182.60 121.01 181.87 120.64 181.51 120.46 C 176.25 115.62 171.59 110.15 166.14 105.51 C 155.55 116.45 144.50 126.96 133.88 137.88 C 132.35 139.47 130.63 140.87 128.83 142.16 C 128.68 134.42 128.78 126.68 128.75 118.94 C 128.55 117.24 129.41 115.71 130.59 114.56 C 137.98 106.99 145.67 99.70 152.95 92.02 C 145.47 84.48 137.95 76.98 130.42 69.49 C 129.80 68.69 128.70 67.99 128.78 66.85 C 128.74 58.56 128.70 50.27 128.83 41.99 Z" />
<path fill="#fefefe" opacity="1.00" d=" M 42.01 128.83 C 49.36 128.65 56.72 128.82 64.08 128.73 C 65.79 128.77 67.82 128.37 69.03 129.93 C 85.88 146.74 102.67 163.62 119.55 180.41 C 120.48 181.33 121.38 182.52 121.25 183.91 C 121.23 191.71 121.34 199.52 121.15 207.32 C 120.17 206.82 119.26 206.22 118.42 205.53 C 95.28 182.35 72.10 159.22 48.96 136.04 C 46.56 133.71 44.16 131.38 42.01 128.83 Z" />
<path fill="#fefefe" opacity="1.00" d=" M 177.45 133.45 C 179.09 131.89 180.50 130.04 182.45 128.84 C 190.96 128.64 199.49 128.74 208.01 128.83 C 207.24 129.74 206.45 130.66 205.63 131.54 C 182.28 154.88 158.93 178.23 135.58 201.58 C 133.43 203.83 131.23 206.03 128.84 208.02 C 128.74 199.50 128.65 190.96 128.85 182.45 C 129.90 180.68 131.56 179.40 132.96 177.94 C 147.80 163.11 162.63 148.29 177.45 133.45 Z" />
</g>
</svg>

<?xml version="1.0" encoding="utf-8"?>
<!-- Generator: Adobe Illustrator 26.0.3, SVG Export Plug-In . SVG Version: 6.00 Build 0)  -->
<svg version="1.1" id="Layer_1" xmlns="http://www.w3.org/2000/svg" xmlns:xlink="http://www.w3.org/1999/xlink" x="0px" y="0px"
	 viewBox="0 0 250 250" style="enable-background:new 0 0 250 250;" xml:space="preserve">
<style type="text/css">
	.st0{fill:#FEFEFE;}
</style>
<circle cx="125" cy="125.5" r="125"/>
<g id="_x23_fefefeff">
	<path class="st0" d="M118.5,44.4c0.9-0.8,1.8-1.6,2.7-2.4c0.1,8.3,0.1,16.6,0.1,24.9c0.1,1.1-1,1.9-1.6,2.7
		c-16.7,16.7-33.4,33.3-50.1,50.1c-0.8,0.6-1.5,1.7-2.7,1.6c-8.3,0-16.6,0.1-24.9-0.1c0.9-1.1,1.9-2.2,2.9-3.2
		C69.5,93.4,94,68.9,118.5,44.4z"/>
	<path class="st0" d="M128.8,42c0.7,0.6,1.5,1.2,2.2,1.9c25.7,25.5,51,51.3,76.8,76.6c-0.5,0.2-1.4,0.6-1.9,0.7
		c-7.7,0-15.3,0.1-23,0c-0.4-0.2-1.1-0.6-1.5-0.7c-5.3-4.8-9.9-10.3-15.4-14.9c-10.6,10.9-21.6,21.4-32.3,32.4
		c-1.5,1.6-3.2,3-5.1,4.3c-0.2-7.7-0.1-15.5-0.1-23.2c-0.2-1.7,0.7-3.2,1.8-4.4c7.4-7.6,15.1-14.9,22.4-22.5
		c-7.5-7.5-15-15-22.5-22.5c-0.6-0.8-1.7-1.5-1.6-2.6C128.7,58.6,128.7,50.3,128.8,42z"/>
	<path class="st0" d="M42,128.8c7.4-0.2,14.7,0,22.1-0.1c1.7,0,3.7-0.4,4.9,1.2c16.8,16.8,33.6,33.7,50.5,50.5
		c0.9,0.9,1.8,2.1,1.7,3.5c0,7.8,0.1,15.6-0.1,23.4c-1-0.5-1.9-1.1-2.7-1.8C95.3,182.4,72.1,159.2,49,136
		C46.6,133.7,44.2,131.4,42,128.8z"/>
	<path class="st0" d="M177.4,133.4c1.6-1.6,3.1-3.4,5-4.6c8.5-0.2,17-0.1,25.6,0c-0.8,0.9-1.6,1.8-2.4,2.7
		c-23.4,23.3-46.7,46.7-70.1,70c-2.2,2.2-4.4,4.4-6.7,6.4c-0.1-8.5-0.2-17.1,0-25.6c1-1.8,2.7-3.1,4.1-4.5
		C147.8,163.1,162.6,148.3,177.4,133.4z"/>
</g>
</svg>
